X:1
T: Bill Cormack of Blair
C:
R:Reel
Q:232
K:C
M:4/4
L:1/8
gf|e2g2 d2ed|c2e2 G2cB|A2c2 f2a2|gfec d2gf|e2g2 d2ed|c2e2 G2cB|A2f2 edcB|d2c2 c2ef|
g2e2 c2eg|f2d2 G2de|f2d2 GBdf|edef g2ef|g2e2 c2eg|f2d2 G2de|f2d2 gfed|e2c2 c2ef|
g2e2 c2eg|f2d2 G2de|f2d2 GBdf|edef g2ef|g2e2 c2eg|f2d2 G2de|f2d2 gfed|e2c2 c2gf|
e2g2 d2ed|c2e2 G2cB|A2c2 f2a2|gfec d2gf|e2g2 d2ed|c2e2 G2cB|A2f2 edcB|d2c2 c2||
